src/actions/22/path-mode-polyline.svg

<svg xmlns="http://www.w3.org/2000/svg" viewBox="0 0 22 22">
    <defs id="defs3051">
        <style id="current-color-scheme" type="text/css">
            .ColorScheme-Highlight{color:#a0b6cb}
        </style>
    </defs>
    <path d="M3 3v3h2.066L12 16.402V19h3v-3h-2.066L6 5.6V5h10v1h3V3h-3v1H6V3H3zm1 1h1v1H4V4zm13 0h1v1h-1V4zm-4 13h1v1h-1v-1z" style="fill:currentColor;fill-opacity:1;stroke:none;color:#050505;opacity:.7"/>
</svg>

<svg xmlns="http://www.w3.org/2000/svg" viewBox="0 0 22 22">
  <defs id="defs3051">
    <style type="text/css" id="current-color-scheme">
      .ColorScheme-Text {
        color:#363636;
      }
      .ColorScheme-Highlight {
        color:#a0b6cb;
      }
      </style>
  </defs>
 <path 
     style="fill:currentColor;fill-opacity:1;stroke:none" 
     d="M 3 3 L 3 6 L 5.0664062 6 L 12 16.402344 L 12 19 L 15 19 L 15 16 L 12.933594 16 L 6 5.5996094 L 6 5 L 16 5 L 16 6 L 19 6 L 19 3 L 16 3 L 16 4 L 6 4 L 6 3 L 3 3 z M 4 4 L 5 4 L 5 5 L 4 5 L 4 4 z M 17 4 L 18 4 L 18 5 L 17 5 L 17 4 z M 13 17 L 14 17 L 14 18 L 13 18 L 13 17 z "
     class="ColorScheme-Text"
     />
</svg>
